!!! OTL: Berkowitz389
!!! Chapter: 1
!!! Section: III
!!! Page: 96
!!! Mode: 
!!! Encoder: DJB
**kern
*staff1
*I"Piano
=1-
*clefC3
*k[f#c#g#]
*f#:
*M3/4
4cc#\
4a\
4e#\
=2
4.f#\
16g#\LL
16a\JJ
16b\LL
16cc#\J
8dd\J
=3
4dd\
4b\
4g#\
=4
4f#\
4e#\
8r
8c#\
=5
8a\L
8e#\J
8f#\L
8c#\J
8d\L
8B\J
=6
4.e\
16g#\LL
16f#\JJ
16e\LL
16d\
16c#\
16B\JJ
=7
4.A/
8c#\
8e\L
8a\J
=8
!!linebreak:original
8cc#\L
8b\J
2a\
=9
4cc#\
4a\
4e\
=10
4.f#\
16g#\LL
16a#\JJ
16b\LL
16cc#\J
8dd\J
=11
4dd\
4b\
4g#\
=12
4f#\
4e#\
8r
8c#\
=13
8cc#\L
8dd\J
8cc#\L
8c#\J
8d\L
8c#\J
=14
8b\L
8cc#\J
8b\L
8c#\J
8d\L
8c#\J
=15
!!linebreak:original
8a\L
8b\J
8a\L
16g#\L
16f#\JJ
16a\LL
16g#\
16f#\
16e#\JJ
=16
4.f#\
8A/
8d\L
8c#\J
=17
2.F#/
==
*-
